X:155
T: Farewell to Whiskey
S: Treoir
Z: B.Black
M: 2/4
L: 1/16
R: polka
K: G
E | D2GA BAGA | B2E2 EFGE | D2GA BAGB | d2d2 B2d2 |
efge d2B2 | cBAG A2c2 | D2GA BAGA | B2G2 G3 :|
B | d2B2 g2fg | efge d2B2 | d2Bd g2fg | e2f2 g4 |
efge d2B2 | cBAG A2B2 | D2GA BAGA | B2G2 G3 :|
